X:21091
T: Muirland Willie
R: jig
B: RSCDS 21-9(I)
Z: 1997 by John Chambers <jc:trillian.mit.edu>
N: from Surenne
M: 6/8
L: 1/8
%--------------------
K: Em
   B \
| "Em"E2F G2A | "G"B2c d2B |       G2G      d2B   | "D"AFA  D2F \
| "Em"E2F G2A |    BcB g2f | "(Am)"e>dc "B7"B^c^d | "Em"e3- e2 :|
|: B \
| "Em"e2f  g2e  | "G"d2B d2B |       G>AG     d2B   | "D"AFA  D2^D \
| "Em"E>FE G>AG |   B>cB g2f | "(Am)"e>dc "B7"B^c^d | "Em"e3- e2 :|
